src/notes/passion-people/gentools-logo.svg

<svg fill="none" height="1014" viewBox="0 0 1120 1014" width="1120" xmlns="http://www.w3.org/2000/svg"><path d="m337.819 270.587c7.419-20.384 29.959-36.909 50.343-36.909h377.495l-55.096 88.582h-391.549z" fill="#55d537"/><path d="m319.012 322.26h448.114l-50.146 88.582h-430.21z" fill="#ffe71c"/><path d="m286.77 410.842h478.908l-32.241 88.583h-478.908z" fill="#fb9713"/><path d="m254.529 499.425h469.516l-67.25 88.582h-434.507z" fill="#ed461d"/><path d="m222.288 588.007h587.031l-104.467 88.582h-514.806z" fill="#d950e2"/><path d="m190.046 676.589h587.032l-89.201 88.582h-485.781c-24.461 0-37.074-19.83-28.171-44.291z" fill="#5dc9df"/><path d="m912.825 224.209c24.135 30.84 32.298 73.061 17.917 112.572-2.053 5.639-4.493 11.026-7.279 16.14-30.027 55.118-93.072 90.203-121.844 145.987-2.204 4.274.899 9.366 5.708 9.366l114.031.001-257.443 323.334 78.52-220.704c5.96-16.752-6.389-34.377-24.169-34.496l-46.969-.315 63.723-177.101c3.513-9.763.63-20.522-5.882-28.6-24.948-30.949-33.558-73.815-18.971-113.895 14.172-38.938 46.808-65.817 84.422-74.351l-21.434 58.887c-11.852 32.563 4.938 68.57 37.502 80.422 32.563 11.852 68.57-4.938 80.422-37.502z" fill="#f0eec2"/><path clip-rule="evenodd" d="m789.688 160.549c7.903-1.793 16.156.875 21.515 6.955 5.358 6.08 6.968 14.601 4.197 22.216l-21.434 58.887c-7.669 21.071 3.195 44.37 24.265 52.039 20.742 7.549 43.642-2.861 51.668-23.286l.371-.979 21.745-59.747c2.753-7.561 9.389-13.034 17.336-14.297 7.947-1.262 15.953 1.887 20.913 8.224 28.2 36.034 38.081 85.239 22.07 131.588l-.781 2.206c-15.456 42.465-49.397 72.841-89.35 85.401l-29.075 56.372 88.229.002c8.504 0 16.258 4.869 19.951 12.528 3.692 7.66 2.67 16.759-2.626 23.411l-257.442 323.335c-6.743 8.467-18.619 10.82-28.08 5.563-9.462-5.257-13.737-16.583-10.109-26.781l17.056-47.942h-458.012c-15.345 0-28.473-6.365-35.939-18.103-7.361-11.574-7.969-26.394-2.635-41.048l163.893-450.292c4.576-12.573 13.589-23.488 24.167-31.244 10.547-7.732 23.52-12.952 36.582-12.952h314.015c20.012-32.036 51.913-53.978 87.51-62.056zm4.901 21.598c-25.403 5.764-48.532 19.897-65.239 40.458-5.428 6.68-10.177 14.038-14.106 22.009-1.885 3.823-3.585 7.786-5.077 11.884l-.759 2.149c-5.973 17.439-7.595 35.353-5.433 52.54.825 6.562 2.199 13.019 4.096 19.302 5.271 17.451 14.562 33.566 27.199 46.915 1.337 1.412 2.711 2.795 4.122 4.145.856.819 1.163 2.063.762 3.178l-66.703 185.379c-1.052 2.924 1.102 6.01 4.209 6.031l69.172.463c3.81.026 6.456 3.803 5.179 7.392l-84.388 237.196c-.699 1.963 1.884 3.398 3.182 1.768l250.553-314.681-115.485-.002c-4.146 0-6.821-4.389-4.92-8.074l44.454-86.186c.992-1.924 2.782-3.302 4.875-3.854 35.352-9.322 65.791-34.97 79.785-71.571l.675-1.807c14.381-39.511 6.218-81.732-17.917-112.572l-21.746 59.745-.572 1.516c-12.404 31.565-47.796 47.652-79.85 35.986l-1.516-.573c-31.064-12.207-47.137-46.677-36.52-78.32l.534-1.529zm-576.115 505.515c-12.413 0-23.501 7.764-27.746 19.428l-6.397 17.576c-3.57 9.807-2.323 17.134.512 21.591 2.729 4.291 8.137 7.841 17.252 7.841h459.38c3.904 0 7.385-2.456 8.694-6.134l15.316-43.054c2.992-8.411-3.245-17.248-12.171-17.248zm32.242-88.583c-12.414 0-23.501 7.764-27.747 19.429l-9.898 27.195c-3.505 9.629 3.626 19.813 13.874 19.813h466.044c3.903 0 7.385-2.457 8.693-6.134l15.317-43.054c2.992-8.411-3.244-17.249-12.171-17.249zm32.241-88.582c-12.413 0-23.501 7.764-27.746 19.429l-9.898 27.195c-3.505 9.629 3.626 19.813 13.873 19.813h381.526c4.746 0 8.141-3.872 9.748-8.337l14.682-40.808c3.029-8.418-3.209-17.292-12.155-17.292zm32.242-88.582c-12.414 0-23.501 7.764-27.747 19.429l-9.898 27.195c-3.504 9.629 3.626 19.813 13.874 19.813h381.419c3.891 0 7.365-2.442 8.682-6.104l15.487-43.041c3.029-8.418-3.209-17.292-12.156-17.292zm32.24-88.582c-12.414 0-23.502 7.764-27.747 19.428l-9.898 27.195c-3.505 9.63 3.626 19.813 13.873 19.813h380.931c3.964 0 7.502-2.487 8.844-6.217 1.154-3.206.462-6.769-1.672-9.425-8.601-10.705-15.563-22.607-20.683-35.276-3.626-8.972-11.95-15.518-21.627-15.518zm40.724-88.582c-7.323 0-15.814 3.041-23.487 8.666-7.642 5.603-13.609 13.145-16.452 20.956l-6.188 17.001c-3.505 9.629 3.626 19.813 13.873 19.813h307.308c9.864 0 17.473-8.57 17.759-18.43.293-10.066 1.681-20.092 4.118-29.863 2.212-8.867-4.082-18.143-13.222-18.143z" fill="#000" fill-rule="evenodd"/></svg>

<svg width="1120" height="1014" viewBox="0 0 1120 1014" fill="none" xmlns="http://www.w3.org/2000/svg">
<path d="M337.819 270.587C345.238 250.203 367.778 233.678 388.162 233.678H765.657L710.561 322.26H319.012L337.819 270.587Z" fill="#55D537"/>
<path d="M319.012 322.26H767.126L716.98 410.842H286.77L319.012 322.26Z" fill="#FFE71C"/>
<path d="M286.77 410.842H765.678L733.437 499.425H254.529L286.77 410.842Z" fill="#FB9713"/>
<path d="M254.529 499.425H724.045L656.795 588.007H222.288L254.529 499.425Z" fill="#ED461D"/>
<path d="M222.288 588.007H809.319L704.852 676.589H190.046L222.288 588.007Z" fill="#D950E2"/>
<path d="M190.046 676.589H777.078L687.877 765.171H202.096C177.635 765.171 165.022 745.341 173.925 720.88L190.046 676.589Z" fill="#5DC9DF"/>
<path d="M912.825 224.209C936.96 255.049 945.123 297.27 930.742 336.781C928.689 342.42 926.249 347.807 923.463 352.921C893.436 408.039 830.391 443.124 801.619 498.908C799.415 503.182 802.518 508.274 807.327 508.274L921.358 508.275L663.915 831.609L742.435 610.905C748.395 594.153 736.046 576.528 718.266 576.409L671.297 576.094L735.02 398.993C738.533 389.23 735.65 378.471 729.138 370.393C704.19 339.444 695.58 296.578 710.167 256.498C724.339 217.56 756.975 190.681 794.589 182.147L773.155 241.034C761.303 273.597 778.093 309.604 810.657 321.456C843.22 333.308 879.227 316.518 891.079 283.954L912.825 224.209Z" fill="#F0EEC2"/>
<path fill-rule="evenodd" clip-rule="evenodd" d="M789.688 160.549C797.591 158.756 805.844 161.424 811.203 167.504C816.561 173.584 818.171 182.105 815.4 189.72L793.966 248.607C786.297 269.678 797.161 292.977 818.231 300.646C838.973 308.195 861.873 297.785 869.899 277.36L870.27 276.381L892.015 216.634C894.768 209.073 901.404 203.6 909.351 202.337C917.298 201.075 925.304 204.224 930.264 210.561C958.464 246.595 968.345 295.8 952.334 342.149L951.553 344.355C936.097 386.82 902.156 417.196 862.203 429.756L833.128 486.128L921.357 486.13C929.861 486.13 937.615 490.999 941.308 498.658C945 506.318 943.978 515.417 938.682 522.069L681.24 845.404C674.497 853.871 662.621 856.224 653.16 850.967C643.698 845.71 639.423 834.384 643.051 824.186L660.107 776.244H202.095C186.75 776.244 173.622 769.879 166.156 758.141C158.795 746.567 158.187 731.747 163.521 717.093L327.414 266.801C331.99 254.228 341.003 243.313 351.581 235.557C362.128 227.825 375.101 222.605 388.163 222.605H702.178C722.19 190.569 754.091 168.627 789.688 160.549ZM794.589 182.147C769.186 187.911 746.057 202.044 729.35 222.605C723.922 229.285 719.173 236.643 715.244 244.614C713.359 248.437 711.659 252.4 710.167 256.498L709.408 258.647C703.435 276.086 701.813 294 703.975 311.187C704.8 317.749 706.174 324.206 708.071 330.489C713.342 347.94 722.633 364.055 735.27 377.404C736.607 378.816 737.981 380.199 739.392 381.549C740.248 382.368 740.555 383.612 740.154 384.727L673.451 570.106C672.399 573.03 674.553 576.116 677.66 576.137L746.832 576.6C750.642 576.626 753.288 580.403 752.011 583.992L667.623 821.188C666.924 823.151 669.507 824.586 670.805 822.956L921.358 508.275L805.873 508.273C801.727 508.273 799.052 503.884 800.953 500.199L845.407 414.013C846.399 412.089 848.189 410.711 850.282 410.159C885.634 400.837 916.073 375.189 930.067 338.588L930.742 336.781C945.123 297.27 936.96 255.049 912.825 224.209L891.079 283.954L890.507 285.47C878.103 317.035 842.711 333.122 810.657 321.456L809.141 320.883C778.077 308.676 762.004 274.206 772.621 242.563L773.155 241.034L794.589 182.147ZM218.474 687.662C206.061 687.662 194.973 695.426 190.728 707.09L184.331 724.666C180.761 734.473 182.008 741.8 184.843 746.257C187.572 750.548 192.98 754.098 202.095 754.098H661.475C665.379 754.098 668.86 751.642 670.169 747.964L685.485 704.91C688.477 696.499 682.24 687.662 673.314 687.662H218.474ZM250.716 599.079C238.302 599.079 227.215 606.843 222.969 618.508L213.071 645.703C209.566 655.332 216.697 665.516 226.945 665.516H692.989C696.892 665.516 700.374 663.059 701.682 659.382L716.999 616.328C719.991 607.917 713.755 599.079 704.828 599.079H250.716ZM282.957 510.497C270.544 510.497 259.456 518.261 255.211 529.926L245.313 557.121C241.808 566.75 248.939 576.934 259.186 576.934H640.712C645.458 576.934 648.853 573.062 650.46 568.597L665.142 527.789C668.171 519.371 661.933 510.497 652.987 510.497H282.957ZM315.199 421.915C302.785 421.915 291.698 429.679 287.452 441.344L277.554 468.539C274.05 478.168 281.18 488.352 291.428 488.352H672.847C676.738 488.352 680.212 485.91 681.529 482.248L697.016 439.207C700.045 430.789 693.807 421.915 684.86 421.915H315.199ZM347.439 333.333C335.025 333.333 323.937 341.097 319.692 352.761L309.794 379.956C306.289 389.586 313.42 399.769 323.667 399.769H704.598C708.562 399.769 712.1 397.282 713.442 393.552C714.596 390.346 713.904 386.783 711.77 384.127C703.169 373.422 696.207 361.52 691.087 348.851C687.461 339.879 679.137 333.333 669.46 333.333H347.439ZM388.163 244.751C380.84 244.751 372.349 247.792 364.676 253.417C357.034 259.02 351.067 266.562 348.224 274.373L342.036 291.374C338.531 301.003 345.662 311.187 355.909 311.187H663.217C673.081 311.187 680.69 302.617 680.976 292.757C681.269 282.691 682.657 272.665 685.094 262.894C687.306 254.027 681.012 244.751 671.872 244.751H388.163Z" fill="black"/>
</svg>
